svgs/regular/crow.svg

<svg xmlns="http://www.w3.org/2000/svg" viewBox="0 0 640 512"><!--! Font Awesome Pro 6.0.0-alpha3 by @fontawesome - https://fontawesome.com License - https://fontawesome.com/license (Commercial License) --><path d="M544 32L519.1 32C501.5 12.5 476.4 0 448 0c-53 0-96 43-96 96v30.12L12.12 393.6c-7.625 5.625-12.12 14.62-12.12 24.12c0 17.5 14.36 30.24 30.24 30.24c4.5 0 9.015-.9819 13.51-3.232l121.5-60.76L263.4 384l42.15 112.4c3.609 9.625 12.75 15.56 22.47 15.56c2.797 0 5.656-.5 8.422-1.531c12.42-4.656 18.7-18.5 14.05-30.91L314.7 384L352 384c1.875 0 3.75-.2513 5.625-.2513l1.574-.2588l42.34 112.9c3.609 9.625 12.75 15.56 22.47 15.56c2.797 0 5.656-.5 8.422-1.531c12.42-4.656 18.7-18.5 14.05-30.91l-38.99-103.1C486.4 351.7 544 278.7 544 192V112l96-16C640 60.63 597 32 544 32zM495.1 192C495.1 271.4 431.4 336 352 336H274.3l45.38-13c48-13.62 88.38-47.13 110.6-91.88c4-7.875 .75-17.5-7.125-21.38c-7.875-4-17.5-.75-21.5 7.125C383.4 253.5 350.3 281 310.8 292.3l-144.9 41.38L400 149.5l0-53.51C399.1 69.49 421.5 48 448 48s47.1 21.5 47.1 48V192zM448 72c-13.25 0-24 10.75-24 24S434.8 120 448 120S472 109.3 472 96S461.3 72 448 72z"/></svg>

<svg xmlns="http://www.w3.org/2000/svg" viewBox="0 0 640 512"><!-- Font Awesome Pro 6.0.0-alpha2 by @fontawesome - https://fontawesome.com License - https://fontawesome.com/license (Commercial License) --><path d="M544 32H519.125C501.5 12.5 476.375 0 448 0C395 0 352 43 352 96V126.125L12.125 393.625C4.5 399.25 0 408.25 0 417.75C0 435.25 14.375 448 30.25 448C34.75 448 39.25 447 43.75 444.75L165.25 384H261.75H263.387L305.537 496.4C309.146 506.025 318.287 511.963 328.006 511.963C330.803 511.963 333.662 511.463 336.428 510.432C348.85 505.775 355.131 491.932 350.475 479.525L314.652 384H352C353.875 384 355.75 383.75 357.625 383.75L359.199 383.502L401.537 496.4C405.146 506.025 414.287 511.963 424.006 511.963C426.803 511.963 429.662 511.463 432.428 510.432C444.85 505.775 451.131 491.932 446.475 479.525L407.486 375.555C486.445 351.689 544 278.688 544 192V112L640 96C640 60.625 597 32 544 32ZM496 192C496 271.375 431.375 336 352 336H274.25L319.625 323C367.625 309.375 408 275.875 430.25 231.125C434.25 223.25 431 213.625 423.125 209.75C415.25 205.75 405.625 209 401.625 216.875C383.375 253.5 350.25 281 310.75 292.25L165.875 333.625L381.625 163.875L400 149.5V96C400 69.5 421.5 48 448 48S496 69.5 496 96V192ZM448 72C434.75 72 424 82.75 424 96S434.75 120 448 120S472 109.25 472 96S461.25 72 448 72Z"/></svg>
